X: 14537
T: Gan Ainm
R: reel
M: 4/4
K: Edorian
|:EB~B2 EBde|dBAG EDB,E|DF~F2 DFde|dcBd ABFD|
EB~B2 EBde|dBAG EDB,E|DF~F2 DFde|1 dBAB EDB,D:|2 dBAB ~E3A||
|:Be^ge dBAE|AEBE cEdE|Be^ge fgfe|^dBeB fB~B2|
BABc dBcB|ABcA BE~E2|DEFA dedc|1 BdAF ~E3A:|2 BdAF EDB,D||

